report_00007_2020-12-11T15:55:29.892Z/meta/score/comparison/sorted/7_vs_8.svg

<svg width="640" height="500" xmlns="http://www.w3.org/2000/svg" xmlns:xlink="http://www.w3.org/1999/xlink"><path fill="#fff" d="M0 0h640v500H0z"/><defs><path id="d" stroke-width=".222" stroke="currentColor" d="M-1-1h2v2h-2z"/><path id="b" stroke-width=".222" stroke="currentColor" d="M0-1.33l-1.33 2h2.66z"/><path id="f" stroke-width=".222" stroke="currentColor" d="M0 1.33L1.265.411.782-1.067l-1.564-.009-.483 1.487z"/><use xlink:href="#b" id="c" stroke="currentColor" transform="rotate(180)"/><use xlink:href="#d" id="e" stroke="currentColor" transform="rotate(45)"/><circle id="a" stroke-width=".222" stroke="currentColor" cx="0" cy="0" r="1"/></defs><g fill="none" color="#000" stroke="currentColor"><path stroke="#000" d="M62.2 414.5h9m543.8 0h-9"/><text transform="translate(53.9 418.4)" stroke="none" fill="#000" font-family="Arial" font-size="12" text-anchor="end"><tspan>0.7</tspan></text></g><g fill="none" color="#000" stroke="currentColor"><path stroke="#000" d="M62.2 365.4h9m543.8 0h-9"/><text transform="translate(53.9 369.3)" stroke="none" fill="#000" font-family="Arial" font-size="12" text-anchor="end"><tspan>0.71</tspan></text></g><g fill="none" color="#000" stroke="currentColor"><path stroke="#000" d="M62.2 316.4h9m543.8 0h-9"/><text transform="translate(53.9 320.3)" stroke="none" fill="#000" font-family="Arial" font-size="12" text-anchor="end"><tspan>0.72</tspan></text></g><g fill="none" color="#000" stroke="currentColor"><path stroke="#000" d="M62.2 267.3h9m543.8 0h-9"/><text transform="translate(53.9 271.2)" stroke="none" fill="#000" font-family="Arial" font-size="12" text-anchor="end"><tspan>0.73</tspan></text></g><g fill="none" color="#000" stroke="currentColor"><path stroke="#000" d="M62.2 218.3h9m543.8 0h-9"/><text transform="translate(53.9 222.2)" stroke="none" fill="#000" font-family="Arial" font-size="12" text-anchor="end"><tspan>0.74</tspan></text></g><g fill="none" color="#000" stroke="currentColor"><path stroke="#000" d="M62.2 169.2h9m543.8 0h-9"/><text transform="translate(53.9 173.1)" stroke="none" fill="#000" font-family="Arial" font-size="12" text-anchor="end"><tspan>0.75</tspan></text></g><g fill="none" color="#000" stroke="currentColor"><path stroke="#000" d="M62.2 120.2h9m543.8 0h-9"/><text transform="translate(53.9 124.1)" stroke="none" fill="#000" font-family="Arial" font-size="12" text-anchor="end"><tspan>0.76</tspan></text></g><g fill="none" color="#000" stroke="currentColor"><path stroke="#000" d="M62.2 71.1h9m543.8 0h-9"/><text transform="translate(53.9 75)" stroke="none" fill="#000" font-family="Arial" font-size="12" text-anchor="end"><tspan>0.77</tspan></text></g><g fill="none" color="#000" stroke="currentColor"><path stroke="#000" d="M62.2 22.1h9m543.8 0h-9"/><text transform="translate(53.9 26)" stroke="none" fill="#000" font-family="Arial" font-size="12" text-anchor="end"><tspan>0.78</tspan></text></g><g fill="none" color="#000" stroke="currentColor"><path stroke="#000" d="M62.2 446v-9m0-418.9v9"/><text transform="translate(62.2 467.9)" stroke="none" fill="#000" font-family="Arial" font-size="12" text-anchor="middle"><tspan>0</tspan></text></g><g fill="none" color="#000" stroke="currentColor"><path stroke="#000" d="M118 446v-9m0-418.9v9"/><text transform="translate(118 467.9)" stroke="none" fill="#000" font-family="Arial" font-size="12" text-anchor="middle"><tspan>10</tspan></text></g><g fill="none" color="#000" stroke="currentColor"><path stroke="#000" d="M173.9 446v-9m0-418.9v9"/><text transform="translate(173.9 467.9)" stroke="none" fill="#000" font-family="Arial" font-size="12" text-anchor="middle"><tspan>20</tspan></text></g><g fill="none" color="#000" stroke="currentColor"><path stroke="#000" d="M229.7 446v-9m0-418.9v9"/><text transform="translate(229.7 467.9)" stroke="none" fill="#000" font-family="Arial" font-size="12" text-anchor="middle"><tspan>30</tspan></text></g><g fill="none" color="#000" stroke="currentColor"><path stroke="#000" d="M285.6 446v-9m0-418.9v9"/><text transform="translate(285.6 467.9)" stroke="none" fill="#000" font-family="Arial" font-size="12" text-anchor="middle"><tspan>40</tspan></text></g><g fill="none" color="#000" stroke="currentColor"><path stroke="#000" d="M341.4 446v-9m0-418.9v9"/><text transform="translate(341.4 467.9)" stroke="none" fill="#000" font-family="Arial" font-size="12" text-anchor="middle"><tspan>50</tspan></text></g><g fill="none" color="#000" stroke="currentColor"><path stroke="#000" d="M397.2 446v-9m0-418.9v9"/><text transform="translate(397.2 467.9)" stroke="none" fill="#000" font-family="Arial" font-size="12" text-anchor="middle"><tspan>60</tspan></text></g><g fill="none" color="#000" stroke="currentColor"><path stroke="#000" d="M453.1 446v-9m0-418.9v9"/><text transform="translate(453.1 467.9)" stroke="none" fill="#000" font-family="Arial" font-size="12" text-anchor="middle"><tspan>70</tspan></text></g><g fill="none" color="#000" stroke="currentColor"><path stroke="#000" d="M508.9 446v-9m0-418.9v9"/><text transform="translate(508.9 467.9)" stroke="none" fill="#000" font-family="Arial" font-size="12" text-anchor="middle"><tspan>80</tspan></text></g><g fill="none" color="#000" stroke="currentColor"><path stroke="#000" d="M564.7 446v-9m0-418.9v9"/><text transform="translate(564.7 467.9)" stroke="none" fill="#000" font-family="Arial" font-size="12" text-anchor="middle"><tspan>90</tspan></text></g><path stroke="#000" d="M62.2 18.1V446H615V18.1H62.2z" fill="none" color="#000"/><text transform="translate(279.8 485.9)" stroke="none" fill="#000" font-family="Arial" font-size="12" text-anchor="end" color="#000"><tspan>pages+cached+noexternal+nosvg</tspan></text><path stroke="#9400D3" d="M288.1 482h42.2M62.2 437.8l5.6-.4 5.6-.8H79l5.5-.1 5.6-.2 5.6-.2 5.6-71.4 5.6-1.4 5.6-24.9 5.5-1.3 5.6-6.6 5.6-.2 5.6-10.9 5.6-7.3 5.6-6.4 5.5-.2 5.6-.5 5.6-.1 5.6-.1H190.6l5.6-.1h5.6l5.6-.2h11.1l5.6-.1h11.2l5.6-.1 5.6-.1H268.8l5.6-.1 5.6-.1h5.6l5.5-.1 5.6-.1 5.6-.2 5.6-11.7 5.6-.1h11.1l5.6-.1 5.6-.1 5.6-.1 5.6-.1h5.6l5.5-.2h5.6l5.6-.1h5.6l5.6-.2 5.6-.1 5.5-.1 5.6-.2h5.6l5.6-5.2h5.6l5.6-.4 5.5-.3 5.6-.1H447.5l5.6-.2h11.1l5.6-.2 5.6-.1 5.6-.5 5.6-.1 5.6-.3 5.5-78 5.6-.2 5.6-.5 5.6-.6h5.6l5.6-.2h5.5l5.6-.1H548l5.6-.1 5.6-.1 5.5-.2h5.6l5.6-.1h5.6l5.6-.1 5.6-.1 5.5-.3 5.6-.1 5.6-.1 5.6-.7" fill="none" color="#000"/><text transform="translate(579.3 485.9)" stroke="none" fill="#000" font-family="Arial" font-size="12" text-anchor="end" color="#000"><tspan>pages+cached+noexternal+noimg</tspan></text><path stroke="#009E73" d="M587.6 482h42.2M62.2 334.9l5.6-102.7 5.6-.5 5.6-.3 5.5-.5 5.6-.3 5.6-1.2 5.6-1.8 5.6-15.7 5.6-.4 5.5-.2h5.6l5.6-.3 5.6-1.3 5.6-.1 5.6-1.1 5.5-.4 5.6-.5h5.6l5.6-.3 5.6-.1 5.6-.2 5.5-.1h5.6l5.6-.5 5.6-.5 5.6-.2 5.6-.1 5.5-.2h5.6l5.6-.2h5.6l5.6-.1 5.6-.3h5.6l5.5-.1h5.6l5.6-.3 5.6-.2 5.6-.1 5.6-.2 5.5-.1 5.6-.1 5.6-1.7 5.6-.9 5.6-1.2 5.6-.3 5.5-1.5 5.6-1.4 5.6-.7 5.6-7.9 5.6-.7 5.6-.9 5.5-.8 5.6-.3 5.6-1.6 5.6-3.2 5.6-1.2 5.6-.1 5.5-.2 5.6-.6 5.6-1.1 5.6-34.3 5.6-2.5 5.6-.1 5.5-6.4 5.6-.5 5.6-1 5.6-1.9 5.6-.1 5.6-1.4 5.6-8.7 5.5-6 5.6-.1 5.6-1.6 5.6-4.7 5.6-1.6 5.6-.5 5.5-.4 5.6-.1 5.6-.7 5.6-.9 5.6-18.4 5.6-.1 5.5-.4 5.6-32.5 5.6-13.4 5.6-.1 5.6-.7 5.6-.8h5.5l5.6-.5h5.6l5.6-.7 5.6-6.4 5.6-.4 5.5-.4 5.6-.6 5.6-.1 5.6-2.1" fill="none" color="#000"/><g fill="none" color="#000" stroke="currentColor"><path stroke="#000" d="M62.2 18.1V446H615V18.1H62.2z"/></g></svg>

<?xml version="1.0" encoding="utf-8"  standalone="no"?>
<svg 
 width="640" height="500"
 viewBox="0 0 640 500"
 xmlns="http://www.w3.org/2000/svg"
 xmlns:xlink="http://www.w3.org/1999/xlink"
>

<title>Gnuplot</title>
<desc>Produced by GNUPLOT 5.4 patchlevel 0 </desc>

<g id="gnuplot_canvas">

<rect x="0" y="0" width="640" height="500" fill="#ffffff"/>
<defs>

	<circle id='gpDot' r='0.5' stroke-width='0.5' stroke='currentColor'/>
	<path id='gpPt0' stroke-width='0.222' stroke='currentColor' d='M-1,0 h2 M0,-1 v2'/>
	<path id='gpPt1' stroke-width='0.222' stroke='currentColor' d='M-1,-1 L1,1 M1,-1 L-1,1'/>
	<path id='gpPt2' stroke-width='0.222' stroke='currentColor' d='M-1,0 L1,0 M0,-1 L0,1 M-1,-1 L1,1 M-1,1 L1,-1'/>
	<rect id='gpPt3' stroke-width='0.222' stroke='currentColor' x='-1' y='-1' width='2' height='2'/>
	<rect id='gpPt4' stroke-width='0.222' stroke='currentColor' fill='currentColor' x='-1' y='-1' width='2' height='2'/>
	<circle id='gpPt5' stroke-width='0.222' stroke='currentColor' cx='0' cy='0' r='1'/>
	<use xlink:href='#gpPt5' id='gpPt6' fill='currentColor' stroke='none'/>
	<path id='gpPt7' stroke-width='0.222' stroke='currentColor' d='M0,-1.33 L-1.33,0.67 L1.33,0.67 z'/>
	<use xlink:href='#gpPt7' id='gpPt8' fill='currentColor' stroke='none'/>
	<use xlink:href='#gpPt7' id='gpPt9' stroke='currentColor' transform='rotate(180)'/>
	<use xlink:href='#gpPt9' id='gpPt10' fill='currentColor' stroke='none'/>
	<use xlink:href='#gpPt3' id='gpPt11' stroke='currentColor' transform='rotate(45)'/>
	<use xlink:href='#gpPt11' id='gpPt12' fill='currentColor' stroke='none'/>
	<path id='gpPt13' stroke-width='0.222' stroke='currentColor' d='M0,1.330 L1.265,0.411 L0.782,-1.067 L-0.782,-1.076 L-1.265,0.411 z'/>
	<use xlink:href='#gpPt13' id='gpPt14' fill='currentColor' stroke='none'/>
	<filter id='textbox' filterUnits='objectBoundingBox' x='0' y='0' height='1' width='1'>
	  <feFlood flood-color='#FFFFFF' flood-opacity='1' result='bgnd'/>
	  <feComposite in='SourceGraphic' in2='bgnd' operator='atop'/>
	</filter>
	<filter id='greybox' filterUnits='objectBoundingBox' x='0' y='0' height='1' width='1'>
	  <feFlood flood-color='lightgrey' flood-opacity='1' result='grey'/>
	  <feComposite in='SourceGraphic' in2='grey' operator='atop'/>
	</filter>
</defs>
<g fill="none" color="#FFFFFF" stroke="black" stroke-width="1.00" stroke-linecap="butt" stroke-linejoin="miter">
</g>
<g fill="none" color="black" stroke="currentColor" stroke-width="1.00" stroke-linecap="butt" stroke-linejoin="miter">
	<path stroke='black'  d='M62.2,414.5 L71.2,414.5 M615.0,414.5 L606.0,414.5  '/>	<g transform="translate(53.9,418.4)" stroke="none" fill="black" font-family="Arial" font-size="12.00"  text-anchor="end">
		<text><tspan font-family="Arial" > 0.7</tspan></text>
	</g>
</g>
<g fill="none" color="black" stroke="currentColor" stroke-width="1.00" stroke-linecap="butt" stroke-linejoin="miter">
	<path stroke='black'  d='M62.2,365.4 L71.2,365.4 M615.0,365.4 L606.0,365.4  '/>	<g transform="translate(53.9,369.3)" stroke="none" fill="black" font-family="Arial" font-size="12.00"  text-anchor="end">
		<text><tspan font-family="Arial" > 0.71</tspan></text>
	</g>
</g>
<g fill="none" color="black" stroke="currentColor" stroke-width="1.00" stroke-linecap="butt" stroke-linejoin="miter">
	<path stroke='black'  d='M62.2,316.4 L71.2,316.4 M615.0,316.4 L606.0,316.4  '/>	<g transform="translate(53.9,320.3)" stroke="none" fill="black" font-family="Arial" font-size="12.00"  text-anchor="end">
		<text><tspan font-family="Arial" > 0.72</tspan></text>
	</g>
</g>
<g fill="none" color="black" stroke="currentColor" stroke-width="1.00" stroke-linecap="butt" stroke-linejoin="miter">
	<path stroke='black'  d='M62.2,267.3 L71.2,267.3 M615.0,267.3 L606.0,267.3  '/>	<g transform="translate(53.9,271.2)" stroke="none" fill="black" font-family="Arial" font-size="12.00"  text-anchor="end">
		<text><tspan font-family="Arial" > 0.73</tspan></text>
	</g>
</g>
<g fill="none" color="black" stroke="currentColor" stroke-width="1.00" stroke-linecap="butt" stroke-linejoin="miter">
	<path stroke='black'  d='M62.2,218.3 L71.2,218.3 M615.0,218.3 L606.0,218.3  '/>	<g transform="translate(53.9,222.2)" stroke="none" fill="black" font-family="Arial" font-size="12.00"  text-anchor="end">
		<text><tspan font-family="Arial" > 0.74</tspan></text>
	</g>
</g>
<g fill="none" color="black" stroke="currentColor" stroke-width="1.00" stroke-linecap="butt" stroke-linejoin="miter">
	<path stroke='black'  d='M62.2,169.2 L71.2,169.2 M615.0,169.2 L606.0,169.2  '/>	<g transform="translate(53.9,173.1)" stroke="none" fill="black" font-family="Arial" font-size="12.00"  text-anchor="end">
		<text><tspan font-family="Arial" > 0.75</tspan></text>
	</g>
</g>
<g fill="none" color="black" stroke="currentColor" stroke-width="1.00" stroke-linecap="butt" stroke-linejoin="miter">
	<path stroke='black'  d='M62.2,120.2 L71.2,120.2 M615.0,120.2 L606.0,120.2  '/>	<g transform="translate(53.9,124.1)" stroke="none" fill="black" font-family="Arial" font-size="12.00"  text-anchor="end">
		<text><tspan font-family="Arial" > 0.76</tspan></text>
	</g>
</g>
<g fill="none" color="black" stroke="currentColor" stroke-width="1.00" stroke-linecap="butt" stroke-linejoin="miter">
	<path stroke='black'  d='M62.2,71.1 L71.2,71.1 M615.0,71.1 L606.0,71.1  '/>	<g transform="translate(53.9,75.0)" stroke="none" fill="black" font-family="Arial" font-size="12.00"  text-anchor="end">
		<text><tspan font-family="Arial" > 0.77</tspan></text>
	</g>
</g>
<g fill="none" color="black" stroke="currentColor" stroke-width="1.00" stroke-linecap="butt" stroke-linejoin="miter">
	<path stroke='black'  d='M62.2,22.1 L71.2,22.1 M615.0,22.1 L606.0,22.1  '/>	<g transform="translate(53.9,26.0)" stroke="none" fill="black" font-family="Arial" font-size="12.00"  text-anchor="end">
		<text><tspan font-family="Arial" > 0.78</tspan></text>
	</g>
</g>
<g fill="none" color="black" stroke="currentColor" stroke-width="1.00" stroke-linecap="butt" stroke-linejoin="miter">
	<path stroke='black'  d='M62.2,446.0 L62.2,437.0 M62.2,18.1 L62.2,27.1  '/>	<g transform="translate(62.2,467.9)" stroke="none" fill="black" font-family="Arial" font-size="12.00"  text-anchor="middle">
		<text><tspan font-family="Arial" > 0</tspan></text>
	</g>
</g>
<g fill="none" color="black" stroke="currentColor" stroke-width="1.00" stroke-linecap="butt" stroke-linejoin="miter">
	<path stroke='black'  d='M118.0,446.0 L118.0,437.0 M118.0,18.1 L118.0,27.1  '/>	<g transform="translate(118.0,467.9)" stroke="none" fill="black" font-family="Arial" font-size="12.00"  text-anchor="middle">
		<text><tspan font-family="Arial" > 10</tspan></text>
	</g>
</g>
<g fill="none" color="black" stroke="currentColor" stroke-width="1.00" stroke-linecap="butt" stroke-linejoin="miter">
	<path stroke='black'  d='M173.9,446.0 L173.9,437.0 M173.9,18.1 L173.9,27.1  '/>	<g transform="translate(173.9,467.9)" stroke="none" fill="black" font-family="Arial" font-size="12.00"  text-anchor="middle">
		<text><tspan font-family="Arial" > 20</tspan></text>
	</g>
</g>
<g fill="none" color="black" stroke="currentColor" stroke-width="1.00" stroke-linecap="butt" stroke-linejoin="miter">
	<path stroke='black'  d='M229.7,446.0 L229.7,437.0 M229.7,18.1 L229.7,27.1  '/>	<g transform="translate(229.7,467.9)" stroke="none" fill="black" font-family="Arial" font-size="12.00"  text-anchor="middle">
		<text><tspan font-family="Arial" > 30</tspan></text>
	</g>
</g>
<g fill="none" color="black" stroke="currentColor" stroke-width="1.00" stroke-linecap="butt" stroke-linejoin="miter">
	<path stroke='black'  d='M285.6,446.0 L285.6,437.0 M285.6,18.1 L285.6,27.1  '/>	<g transform="translate(285.6,467.9)" stroke="none" fill="black" font-family="Arial" font-size="12.00"  text-anchor="middle">
		<text><tspan font-family="Arial" > 40</tspan></text>
	</g>
</g>
<g fill="none" color="black" stroke="currentColor" stroke-width="1.00" stroke-linecap="butt" stroke-linejoin="miter">
	<path stroke='black'  d='M341.4,446.0 L341.4,437.0 M341.4,18.1 L341.4,27.1  '/>	<g transform="translate(341.4,467.9)" stroke="none" fill="black" font-family="Arial" font-size="12.00"  text-anchor="middle">
		<text><tspan font-family="Arial" > 50</tspan></text>
	</g>
</g>
<g fill="none" color="black" stroke="currentColor" stroke-width="1.00" stroke-linecap="butt" stroke-linejoin="miter">
	<path stroke='black'  d='M397.2,446.0 L397.2,437.0 M397.2,18.1 L397.2,27.1  '/>	<g transform="translate(397.2,467.9)" stroke="none" fill="black" font-family="Arial" font-size="12.00"  text-anchor="middle">
		<text><tspan font-family="Arial" > 60</tspan></text>
	</g>
</g>
<g fill="none" color="black" stroke="currentColor" stroke-width="1.00" stroke-linecap="butt" stroke-linejoin="miter">
	<path stroke='black'  d='M453.1,446.0 L453.1,437.0 M453.1,18.1 L453.1,27.1  '/>	<g transform="translate(453.1,467.9)" stroke="none" fill="black" font-family="Arial" font-size="12.00"  text-anchor="middle">
		<text><tspan font-family="Arial" > 70</tspan></text>
	</g>
</g>
<g fill="none" color="black" stroke="currentColor" stroke-width="1.00" stroke-linecap="butt" stroke-linejoin="miter">
	<path stroke='black'  d='M508.9,446.0 L508.9,437.0 M508.9,18.1 L508.9,27.1  '/>	<g transform="translate(508.9,467.9)" stroke="none" fill="black" font-family="Arial" font-size="12.00"  text-anchor="middle">
		<text><tspan font-family="Arial" > 80</tspan></text>
	</g>
</g>
<g fill="none" color="black" stroke="currentColor" stroke-width="1.00" stroke-linecap="butt" stroke-linejoin="miter">
	<path stroke='black'  d='M564.7,446.0 L564.7,437.0 M564.7,18.1 L564.7,27.1  '/>	<g transform="translate(564.7,467.9)" stroke="none" fill="black" font-family="Arial" font-size="12.00"  text-anchor="middle">
		<text><tspan font-family="Arial" > 90</tspan></text>
	</g>
</g>
<g fill="none" color="black" stroke="currentColor" stroke-width="1.00" stroke-linecap="butt" stroke-linejoin="miter">
</g>
<g fill="none" color="black" stroke="currentColor" stroke-width="1.00" stroke-linecap="butt" stroke-linejoin="miter">
	<path stroke='black'  d='M62.2,18.1 L62.2,446.0 L615.0,446.0 L615.0,18.1 L62.2,18.1 Z  '/></g>
<g fill="none" color="black" stroke="currentColor" stroke-width="1.00" stroke-linecap="butt" stroke-linejoin="miter">
</g>
	<g id="gnuplot_plot_1" ><title>pages+cached+noexternal+nosvg</title>
<g fill="none" color="black" stroke="currentColor" stroke-width="1.00" stroke-linecap="butt" stroke-linejoin="miter">
	<g transform="translate(279.8,485.9)" stroke="none" fill="black" font-family="Arial" font-size="12.00"  text-anchor="end">
		<text><tspan font-family="Arial" >pages+cached+noexternal+nosvg</tspan></text>
	</g>
</g>
<g fill="none" color="black" stroke="currentColor" stroke-width="1.00" stroke-linecap="butt" stroke-linejoin="miter">
	<path stroke='rgb(148,   0, 211)'  d='M288.1,482.0 L330.3,482.0 M62.2,437.8 L67.8,437.4 L73.4,436.6 L79.0,436.6 L84.5,436.5 L90.1,436.3
		L95.7,436.1 L101.3,364.7 L106.9,363.3 L112.5,338.4 L118.0,337.1 L123.6,330.5 L129.2,330.3 L134.8,319.4
		L140.4,312.1 L146.0,305.7 L151.5,305.5 L157.1,305.0 L162.7,304.9 L168.3,304.8 L173.9,304.8 L179.5,304.8
		L185.0,304.8 L190.6,304.8 L196.2,304.7 L201.8,304.7 L207.4,304.5 L213.0,304.5 L218.5,304.5 L224.1,304.4
		L229.7,304.4 L235.3,304.4 L240.9,304.3 L246.5,304.2 L252.1,304.2 L257.6,304.2 L263.2,304.2 L268.8,304.2
		L274.4,304.1 L280.0,304.0 L285.6,304.0 L291.1,303.9 L296.7,303.8 L302.3,303.6 L307.9,291.9 L313.5,291.8
		L319.1,291.8 L324.6,291.8 L330.2,291.7 L335.8,291.6 L341.4,291.5 L347.0,291.4 L352.6,291.4 L358.1,291.2
		L363.7,291.2 L369.3,291.1 L374.9,291.1 L380.5,290.9 L386.1,290.8 L391.6,290.7 L397.2,290.5 L402.8,290.5
		L408.4,285.3 L414.0,285.3 L419.6,284.9 L425.1,284.6 L430.7,284.5 L436.3,284.5 L441.9,284.5 L447.5,284.5
		L453.1,284.3 L458.7,284.3 L464.2,284.3 L469.8,284.1 L475.4,284.0 L481.0,283.5 L486.6,283.4 L492.2,283.1
		L497.7,205.1 L503.3,204.9 L508.9,204.4 L514.5,203.8 L520.1,203.8 L525.7,203.6 L531.2,203.6 L536.8,203.5
		L542.4,203.5 L548.0,203.5 L553.6,203.4 L559.2,203.3 L564.7,203.1 L570.3,203.1 L575.9,203.0 L581.5,203.0
		L587.1,202.9 L592.7,202.8 L598.2,202.5 L603.8,202.4 L609.4,202.3 L615.0,201.6  '/></g>
	</g>
	<g id="gnuplot_plot_2" ><title>pages+cached+noexternal+noimg</title>
<g fill="none" color="black" stroke="currentColor" stroke-width="1.00" stroke-linecap="butt" stroke-linejoin="miter">
	<g transform="translate(579.3,485.9)" stroke="none" fill="black" font-family="Arial" font-size="12.00"  text-anchor="end">
		<text><tspan font-family="Arial" >pages+cached+noexternal+noimg</tspan></text>
	</g>
</g>
<g fill="none" color="black" stroke="currentColor" stroke-width="1.00" stroke-linecap="butt" stroke-linejoin="miter">
	<path stroke='rgb(  0, 158, 115)'  d='M587.6,482.0 L629.8,482.0 M62.2,334.9 L67.8,232.2 L73.4,231.7 L79.0,231.4 L84.5,230.9 L90.1,230.6
		L95.7,229.4 L101.3,227.6 L106.9,211.9 L112.5,211.5 L118.0,211.3 L123.6,211.3 L129.2,211.0 L134.8,209.7
		L140.4,209.6 L146.0,208.5 L151.5,208.1 L157.1,207.6 L162.7,207.6 L168.3,207.3 L173.9,207.2 L179.5,207.0
		L185.0,206.9 L190.6,206.9 L196.2,206.4 L201.8,205.9 L207.4,205.7 L213.0,205.6 L218.5,205.4 L224.1,205.4
		L229.7,205.2 L235.3,205.2 L240.9,205.1 L246.5,204.8 L252.1,204.8 L257.6,204.7 L263.2,204.7 L268.8,204.4
		L274.4,204.2 L280.0,204.1 L285.6,203.9 L291.1,203.8 L296.7,203.7 L302.3,202.0 L307.9,201.1 L313.5,199.9
		L319.1,199.6 L324.6,198.1 L330.2,196.7 L335.8,196.0 L341.4,188.1 L347.0,187.4 L352.6,186.5 L358.1,185.7
		L363.7,185.4 L369.3,183.8 L374.9,180.6 L380.5,179.4 L386.1,179.3 L391.6,179.1 L397.2,178.5 L402.8,177.4
		L408.4,143.1 L414.0,140.6 L419.6,140.5 L425.1,134.1 L430.7,133.6 L436.3,132.6 L441.9,130.7 L447.5,130.6
		L453.1,129.2 L458.7,120.5 L464.2,114.5 L469.8,114.4 L475.4,112.8 L481.0,108.1 L486.6,106.5 L492.2,106.0
		L497.7,105.6 L503.3,105.5 L508.9,104.8 L514.5,103.9 L520.1,85.5 L525.7,85.4 L531.2,85.0 L536.8,52.5
		L542.4,39.1 L548.0,39.0 L553.6,38.3 L559.2,37.5 L564.7,37.5 L570.3,37.0 L575.9,37.0 L581.5,36.3
		L587.1,29.9 L592.7,29.5 L598.2,29.1 L603.8,28.5 L609.4,28.4 L615.0,26.3  '/></g>
	</g>
<g fill="none" color="#FFFFFF" stroke="rgb(  0, 158, 115)" stroke-width="2.00" stroke-linecap="butt" stroke-linejoin="miter">
</g>
<g fill="none" color="black" stroke="currentColor" stroke-width="2.00" stroke-linecap="butt" stroke-linejoin="miter">
</g>
<g fill="none" color="black" stroke="black" stroke-width="1.00" stroke-linecap="butt" stroke-linejoin="miter">
</g>
<g fill="none" color="black" stroke="currentColor" stroke-width="1.00" stroke-linecap="butt" stroke-linejoin="miter">
	<path stroke='black'  d='M62.2,18.1 L62.2,446.0 L615.0,446.0 L615.0,18.1 L62.2,18.1 Z  '/></g>
<g fill="none" color="black" stroke="currentColor" stroke-width="1.00" stroke-linecap="butt" stroke-linejoin="miter">
</g>
</g>
</svg>
